public/assets/images/homepage/doodle.svg

<svg fill="none" height="501" viewBox="0 0 1504 501" width="1504" xmlns="http://www.w3.org/2000/svg"><path d="m-27.0445 340.201c-4.6622-.63 9.2249-21.565 9.7412-22.45 15.2702-26.179 35.5176-49.579 55.1523-71.917 13.6615-15.542 28.7618-29.376 44.4799-42.423 18.0531-14.984 37.1831-31.819 57.9461-42.345 16.031-8.127 43.757-14.616 60.739-6.812 12.556 5.77 20.521 26.995 23.78 39.868 9.837 38.861 9.456 77.905-8.166 114.03-15.073 30.902-36.882 69.829-66.684 86.471-28.272 15.787-20.564-55.611-18.837-66.808 6.924-44.901 41.889-87.323 73.417-114.959 32.296-28.309 74.49-55.054 117.825-50.396 31.794 3.417 56.88 27.792 66.254 60.15 13.59 46.905 4.588 100.403-12.248 144.841-8.456 22.32-17.977 44.793-29.51 65.491-7.037 12.63-16.569 27.44-29.94 32.824-28.22 11.363-15.349-75.763-13.322-85.774 5.452-26.927 16.335-51.731 28.077-76.02 15.472-32.003 30.82-64.438 50.139-93.98 45.694-69.876 109.616-121.2023 180.642-157.6143 90.63-46.4627 192.923-65.1599 291.949-40.4099 70.402 17.5959 134.453 88.2002 144.255 166.5942 6.645 53.182-9.813 107.762-27.289 156.762-17.012 47.697-40.404 96.653-70.123 136.635-9.301 12.513-34.667 42.111-43.692 12.85-10.046-32.574 7.579-65.933 23.35-92.276 29.226-48.817 69.034-92.244 112.74-126.03 23.989-18.547 49.839-34.62 76.999-47.067 23.8-10.904 50.23-21.485 76.57-19.353 31.38 2.539 67.27 22.98 81.29 54.499 15.19 34.126 9.53 73.303-3.22 106.985-16.22 42.842-41.83 85.139-73.77 116.275-7.7 7.504-16.38 17.585-26.36 21.676-7.64 3.13-8.52-9.805-8.6-15.018-.28-18.387 8.02-35.332 15.76-51.248 13.91-28.605 32.5-52.339 55.58-72.769 50.25-44.466 114.97-65.625 178.21-76.175 39.89-6.655 83.69-6.83 123.77-.541 3.55.557 16.79 5.95 12.18-.697" stroke="#fff" stroke-linecap="round" stroke-width="2"/></svg>

<svg width="1504" height="501" viewBox="0 0 1504 501" fill="none" xmlns="http://www.w3.org/2000/svg">
<path d="M-27.0445 340.201C-31.7067 339.571 -17.8196 318.636 -17.3033 317.751C-2.0331 291.572 18.2143 268.172 37.849 245.834C51.5105 230.292 66.6108 216.458 82.3289 203.411C100.382 188.427 119.512 171.592 140.275 161.066C156.306 152.939 184.032 146.45 201.014 154.254C213.57 160.024 221.535 181.249 224.794 194.122C234.631 232.983 234.25 272.027 216.628 308.152C201.555 339.054 179.746 377.981 149.944 394.623C121.672 410.41 129.38 339.012 131.107 327.815C138.031 282.914 172.996 240.492 204.524 212.856C236.82 184.547 279.014 157.802 322.349 162.46C354.143 165.877 379.229 190.252 388.603 222.61C402.193 269.515 393.191 323.013 376.355 367.451C367.899 389.771 358.378 412.244 346.845 432.942C339.808 445.572 330.276 460.382 316.905 465.766C288.685 477.129 301.556 390.003 303.583 379.992C309.035 353.065 319.918 328.261 331.66 303.972C347.132 271.969 362.48 239.534 381.799 209.992C427.493 140.116 491.415 88.7897 562.441 52.3777C653.071 5.915 755.364 -12.7822 854.39 11.9678C924.792 29.5637 988.843 100.168 998.645 178.562C1005.29 231.744 988.832 286.324 971.356 335.324C954.344 383.021 930.952 431.977 901.233 471.959C891.932 484.472 866.566 514.07 857.541 484.809C847.495 452.235 865.12 418.876 880.891 392.533C910.117 343.716 949.925 300.289 993.631 266.503C1017.62 247.956 1043.47 231.883 1070.63 219.436C1094.43 208.532 1120.86 197.951 1147.2 200.083C1178.58 202.622 1214.47 223.063 1228.49 254.582C1243.68 288.708 1238.02 327.885 1225.27 361.567C1209.05 404.409 1183.44 446.706 1151.5 477.842C1143.8 485.346 1135.12 495.427 1125.14 499.518C1117.5 502.648 1116.62 489.713 1116.54 484.5C1116.26 466.113 1124.56 449.168 1132.3 433.252C1146.21 404.647 1164.8 380.913 1187.88 360.483C1238.13 316.017 1302.85 294.858 1366.09 284.308C1405.98 277.653 1449.78 277.478 1489.86 283.767C1493.41 284.324 1506.65 289.717 1502.04 283.07" stroke="white" stroke-width="2" stroke-linecap="round"/>
</svg>
